src/img/call-modal-img.svg

<svg width="192" height="353" viewBox="0 0 192 353" fill="none" xmlns="http://www.w3.org/2000/svg">
<path d="M3 173.5C3 173.5 40.5367 193 93 193C145.463 193 189 173.5 189 173.5" stroke="#A19B9B" stroke-width="5" stroke-linecap="round" stroke-linejoin="round"/>
<path d="M16.5 201C16.5 201 47.7454 217 93 217C138.255 217 171.5 201 171.5 201" stroke="#A19B9B" stroke-width="4" stroke-linecap="round" stroke-linejoin="round"/>
<path d="M50.5 226C50.5 226 59.7599 236 93 236C126.24 236 134.5 229.5 134.5 229.5" stroke="#A19B9B" stroke-width="3" stroke-linecap="round" stroke-linejoin="round"/>
<path d="M66.4193 335.653L74.7131 319.264C76.3684 316.01 80.4602 314.756 83.8344 316.474L92.0804 320.67C92.402 320.325 92.7343 319.966 93.083 319.586C96.2945 316.126 100.689 311.386 104.488 303.873C108.3 296.343 109.521 289.979 110.417 285.332C110.511 284.84 110.6 284.366 110.693 283.913L105.16 281.103L102.438 279.715C99.0592 277.995 97.6578 273.942 99.305 270.683L107.598 254.293C109.247 251.037 113.34 249.782 116.72 251.503L121.339 253.871L121.275 253.996C122.927 255.106 124.463 256.507 125.793 258.124C127.037 259.67 128.003 261.218 128.744 262.843C134.792 275.84 132.662 290.22 121.402 312.467C105.837 343.217 86.6161 347.556 85.7836 347.733C83.9629 348.096 82.1467 348.224 80.2232 348.118C78.1554 347.999 76.1232 347.584 74.2565 346.904L74.2026 346.996L69.5531 344.691C66.1793 342.969 64.7745 338.916 66.4193 335.653Z" fill="#A19B9B"/>
<path d="M51.7175 147.738C56.4742 113.039 40.2339 63.0261 29.7029 38.0139C28.7408 35.7288 29.5212 33.0889 31.7462 31.995C55.9296 20.1062 115.505 14.6172 131.709 13.3135C134.118 13.1197 136.245 14.6415 136.798 16.9948C141.443 36.7838 160.573 124.633 142.125 156.657C141.257 158.164 139.579 158.935 137.844 158.829L56.5342 153.839C53.4704 153.651 51.3006 150.779 51.7175 147.738Z" stroke="#A19B9B" stroke-width="4"/>
<path d="M55.5 154C55.5 154 46.5 165.5 37.5 168.5" stroke="#A19B9B" stroke-width="2" stroke-linecap="round" stroke-linejoin="round"/>
<path d="M65.5 154C65.5 154 62 163.5 47.5 167.5" stroke="#A19B9B" stroke-width="2" stroke-linecap="round" stroke-linejoin="round"/>
<path d="M76.5 154C76.5 154 68 167 58 169" stroke="#A19B9B" stroke-width="2" stroke-linecap="round" stroke-linejoin="round"/>
<path d="M84.5 156C84.5 156 81 165 72 168.5" stroke="#A19B9B" stroke-width="2" stroke-linecap="round" stroke-linejoin="round"/>
<path d="M94.5 156C94.5 156 91 165.5 82 168.5" stroke="#A19B9B" stroke-width="2" stroke-linecap="round" stroke-linejoin="round"/>
<path d="M104.5 156C104.5 156 101 165 92 168.5" stroke="#A19B9B" stroke-width="2" stroke-linecap="round" stroke-linejoin="round"/>
<path d="M114.5 157C114.5 157 109 166 102 169.5" stroke="#A19B9B" stroke-width="2" stroke-linecap="round" stroke-linejoin="round"/>
<path d="M122.5 158C122.5 158 117.5 167 110 170.5" stroke="#A19B9B" stroke-width="2" stroke-linecap="round" stroke-linejoin="round"/>
<path d="M131 160C131 160 124.5 170 118.5 172.5" stroke="#A19B9B" stroke-width="2" stroke-linecap="round" stroke-linejoin="round"/>
<path d="M139.5 160C139.5 160 135 171.5 127 172.5" stroke="#A19B9B" stroke-width="2" stroke-linecap="round" stroke-linejoin="round"/>
<path d="M33.5882 30.5C33.5882 30.5 23.7941 19 14 16" stroke="#A19B9B" stroke-width="2" stroke-linecap="round" stroke-linejoin="round"/>
<path d="M43.5882 26.5C43.5882 26.5 39.7794 17 24 13" stroke="#A19B9B" stroke-width="2" stroke-linecap="round" stroke-linejoin="round"/>
<path d="M55.1324 25C55.1324 25 45.8824 12 35 10" stroke="#A19B9B" stroke-width="2" stroke-linecap="round" stroke-linejoin="round"/>
<path d="M61.6029 21.5C61.6029 21.5 57.7941 12.5 48 9" stroke="#A19B9B" stroke-width="2" stroke-linecap="round" stroke-linejoin="round"/>
<path d="M73.6029 19.5C73.6029 19.5 69.7941 10 60 7" stroke="#A19B9B" stroke-width="2" stroke-linecap="round" stroke-linejoin="round"/>
<path d="M85.6029 17.5C85.6029 17.5 81.7941 8.5 72 5" stroke="#A19B9B" stroke-width="2" stroke-linecap="round" stroke-linejoin="round"/>
<path d="M100.603 16.5C100.603 16.5 94.6176 7.5 87 4" stroke="#A19B9B" stroke-width="2" stroke-linecap="round" stroke-linejoin="round"/>
<path d="M109.603 15.5C109.603 15.5 104.162 6.5 96 3" stroke="#A19B9B" stroke-width="2" stroke-linecap="round" stroke-linejoin="round"/>
<path d="M118.603 13.5C118.603 13.5 111.529 3.5 105 1" stroke="#A19B9B" stroke-width="2" stroke-linecap="round" stroke-linejoin="round"/>
<path d="M128.603 13.5C128.603 13.5 123.706 2 115 1" stroke="#A19B9B" stroke-width="2" stroke-linecap="round" stroke-linejoin="round"/>
<path d="M79.4679 55.39C79.8897 56.9619 79.8415 57.7778 79.6948 58.2008C79.5851 58.517 79.361 58.7904 78.6985 59.0673C77.9716 59.3712 76.9633 59.5757 75.54 59.8326C75.4223 59.8539 75.3024 59.8754 75.1804 59.8973C73.8852 60.1298 72.357 60.4041 70.7061 60.8471C69.1689 61.2596 67.6476 61.7858 66.2452 62.271C66.0081 62.353 65.7745 62.4339 65.5447 62.5128C63.9151 63.0725 62.4983 63.5291 61.2704 63.7366C60.0321 63.9459 59.2173 63.8584 58.6686 63.5715C58.1777 63.3148 57.6304 62.7544 57.2537 61.3505C55.6935 55.5359 59.3218 49.4065 65.5102 47.7461C71.6985 46.0856 77.9078 49.5755 79.4679 55.39Z" stroke="#A19B9B" stroke-width="3"/>
<path d="M124.859 54.8063C124.702 56.4262 124.37 57.1732 124.084 57.5178C123.871 57.7753 123.565 57.9526 122.847 57.9792C122.06 58.0085 121.044 57.8459 119.621 57.5867C119.504 57.5652 119.384 57.5433 119.262 57.521C117.967 57.2838 116.44 57.004 114.739 56.839C113.155 56.6854 111.546 56.644 110.062 56.6058C109.811 56.5994 109.564 56.593 109.321 56.5862C107.599 56.538 106.112 56.468 104.889 56.2311C103.656 55.9922 102.924 55.6242 102.511 55.1629C102.142 54.7501 101.826 54.0332 101.966 52.5864C102.548 46.5943 108.097 42.1293 114.474 42.7477C120.852 43.3662 125.44 48.8142 124.859 54.8063Z" stroke="#A19B9B" stroke-width="3"/>
<path d="M74 102C83.5 113 113.5 115.5 126.5 92.5" stroke="#A19B9B" stroke-width="4" stroke-linecap="round" stroke-linejoin="round"/>
<ellipse cx="64.5" cy="55" rx="3.5" ry="3" fill="#A19B9B"/>
<ellipse cx="110.5" cy="50" rx="3.5" ry="3" fill="#A19B9B"/>
</svg>

<svg width="192" height="353" fill="none" xmlns="http://www.w3.org/2000/svg"><path d="M3 173.5S40.537 193 93 193s96-19.5 96-19.5" stroke="#A19B9B" stroke-width="5" stroke-linecap="round" stroke-linejoin="round"/><path d="M16.5 201s31.245 16 76.5 16c45.255 0 78.5-16 78.5-16" stroke="#A19B9B" stroke-width="4" stroke-linecap="round" stroke-linejoin="round"/><path d="M50.5 226s9.26 10 42.5 10 41.5-6.5 41.5-6.5" stroke="#A19B9B" stroke-width="3" stroke-linecap="round" stroke-linejoin="round"/><path d="M66.42 335.653l8.293-16.389c1.655-3.254 5.747-4.508 9.121-2.79l8.246 4.196c.322-.345.654-.704 1.003-1.084 3.212-3.46 7.606-8.2 11.405-15.713 3.812-7.53 5.033-13.894 5.929-18.541.094-.492.183-.966.276-1.419l-5.533-2.81-2.722-1.388c-3.379-1.72-4.78-5.773-3.133-9.032l8.293-16.39c1.649-3.256 5.742-4.511 9.122-2.79l4.619 2.368-.064.125a21.214 21.214 0 0 1 4.518 4.128c1.244 1.546 2.21 3.094 2.951 4.719 6.048 12.997 3.918 27.377-7.342 49.624-15.565 30.75-34.786 35.089-35.618 35.266-1.821.363-3.637.491-5.56.385a21.06 21.06 0 0 1-5.968-1.214l-.053.092-4.65-2.305c-3.374-1.722-4.778-5.775-3.134-9.038z" fill="#A19B9B"/><path d="M51.718 147.738c4.756-34.699-11.484-84.712-22.015-109.724-.962-2.285-.182-4.925 2.043-6.019 24.184-11.889 83.759-17.378 99.963-18.681 2.409-.194 4.536 1.328 5.089 3.68 4.645 19.79 23.775 107.639 5.327 139.663-.868 1.507-2.546 2.278-4.281 2.172l-81.31-4.99c-3.064-.188-5.233-3.06-4.816-6.101z" stroke="#A19B9B" stroke-width="4"/><path d="M55.5 154s-9 11.5-18 14.5M65.5 154s-3.5 9.5-18 13.5M76.5 154S68 167 58 169M84.5 156S81 165 72 168.5M94.5 156S91 165.5 82 168.5M104.5 156s-3.5 9-12.5 12.5M114.5 157s-5.5 9-12.5 12.5M122.5 158s-5 9-12.5 12.5M131 160s-6.5 10-12.5 12.5M139.5 160s-4.5 11.5-12.5 12.5M33.588 30.5S23.794 19 14 16M43.588 26.5S39.78 17 24 13M55.132 25S45.882 12 35 10M61.603 21.5S57.794 12.5 48 9M73.603 19.5S69.794 10 60 7M85.603 17.5S81.794 8.5 72 5M100.603 16.5S94.618 7.5 87 4M109.603 15.5S104.162 6.5 96 3M118.603 13.5S111.529 3.5 105 1M128.603 13.5S123.706 2 115 1" stroke="#A19B9B" stroke-width="2" stroke-linecap="round" stroke-linejoin="round"/><path d="M79.468 55.39c.422 1.572.373 2.388.227 2.81-.11.317-.334.59-.996.867-.727.304-1.736.509-3.159.766l-.36.064c-1.295.233-2.823.507-4.474.95-1.537.413-3.058.939-4.46 1.424l-.701.242c-1.63.56-3.047 1.016-4.275 1.224-1.238.209-2.053.121-2.601-.166-.491-.256-1.039-.817-1.415-2.22-1.56-5.815 2.068-11.944 8.256-13.605 6.188-1.66 12.398 1.83 13.958 7.644zM124.859 54.806c-.157 1.62-.489 2.367-.775 2.712-.213.257-.519.435-1.237.461-.787.03-1.803-.133-3.226-.392l-.359-.066c-1.295-.237-2.822-.517-4.523-.682-1.584-.154-3.193-.195-4.677-.233l-.741-.02c-1.722-.048-3.209-.118-4.432-.355-1.233-.239-1.965-.607-2.378-1.068-.369-.413-.685-1.13-.545-2.577.582-5.992 6.131-10.457 12.508-9.838 6.378.618 10.966 6.066 10.385 12.058z" stroke="#A19B9B" stroke-width="3"/><path d="M74 102c9.5 11 39.5 13.5 52.5-9.5" stroke="#A19B9B" stroke-width="4" stroke-linecap="round" stroke-linejoin="round"/><ellipse cx="64.5" cy="55" rx="3.5" ry="3" fill="#A19B9B"/><ellipse cx="110.5" cy="50" rx="3.5" ry="3" fill="#A19B9B"/></svg>
